X:1
T:Reel 1
M:4/4
K:Dmaj
L:1/8
AG|FDEC A,DD2|ECGF ECCB|FDEC  (3DCD A,D|| (3Bcd AG FDD:||2 (3GFE FG AFDz| (3ddd AF BGAF|EFGA BEEG| (3FFF AF BFAF| (3Bcd AG FDDz| (3dcB AF BGAF|EFGA BcdB| (3ABc AG FFEG|AcBG FDDz|
